other/keepass2androidoffline.svg

<svg viewBox="0 0 48 48" xmlns="http://www.w3.org/2000/svg"><defs><style>.a{fill:none;stroke:#fff;stroke-linecap:round;stroke-linejoin:round;}</style></defs><path class="a" d="m10.09 4.48 3.66 3.67c0.6722-0.5516 1.384-1.053 2.13-1.5 5.007-2.872 11.16-2.872 16.17 0 0.7543 0.44 1.473 0.9382 2.15 1.49l3.64-3.64 1.9 1.9-3.63 3.6c2.295 2.592 3.697 5.852 4 9.3h-3.2c-0.562-6.737-6.194-11.92-12.96-11.92s-12.39 5.182-12.96 11.92h-3.15c0.3028-3.448 1.705-6.708 4-9.3l-3.68-3.6 1.9-1.9zm8.54 8.09c1.782 0 2.674 2.154 1.414 3.414-1.26 1.26-3.414 0.3678-3.414-1.414 0-1.105 0.8954-2 2-2zm10.76 0c1.782 0 2.674 2.154 1.414 3.414-1.26 1.26-3.414 0.3678-3.414-1.414 0-1.105 0.8954-2 2-2zm-21.54 14.29v-5.55h32.21v5.55m-32.21 5.55v-5.55h13m6.36 0h12.85v2.15m-16.06-3.66c3.93-0.01302 5.625 4.977 2.5 7.36l1.94 6.76h-8.89l1.94-6.76c-3.129-2.387-1.425-7.383 2.51-7.36zm-16.15 12.65v-5.59h13.29m5.7 0h3.32m1.5 11.09h-23.81v-5.5h12.15"/><path class="a" d="m37.24 28.6a8.46 8.46 0 1 0 8.46 8.46 8.45 8.45 0 0 0-8.46-8.46zm3.43 11.76-6.23 0.09a3 3 0 0 1-3-3 3 3 0 0 1 3.1-3.12l-1.3-1.33 8.76 8.65zm-6.08-6a3.25 3.25 0 0 1 5.69 0.09 4.8 4.8 0 0 1 0.43 1 2.94 2.94 0 0 1 2.53 2.8 1.89 1.89 0 0 1-1.8 2.11h-0.74"/></svg>

<svg id="Layer_1" data-name="Layer 1" xmlns="http://www.w3.org/2000/svg" viewBox="0 0 48 48"><defs><style>.cls-1{fill:none;stroke:#fff;stroke-linecap:round;stroke-linejoin:round;}</style></defs><path class="cls-1" d="M10.09,4.48l3.66,3.67a17.72,17.72,0,0,1,2.13-1.5,16.26,16.26,0,0,1,16.17,0A17.53,17.53,0,0,1,34.2,8.14L37.84,4.5l1.9,1.9L36.11,10a16.17,16.17,0,0,1,4,9.3h-3.2A13,13,0,0,0,11,19.3H7.84a16.17,16.17,0,0,1,4-9.3L8.16,6.4l1.9-1.9Zm8.54,8.09a2,2,0,1,1-2,2A2,2,0,0,1,18.63,12.57Zm10.76,0a2,2,0,1,1-2,2A2,2,0,0,1,29.39,12.57ZM7.85,26.86V21.31H40.06v5.55M7.85,32.41V26.86h13m6.36,0H40.06V29M24,25.35a4.1,4.1,0,0,1,2.5,7.36l1.94,6.76H19.55l1.94-6.76A4.1,4.1,0,0,1,24,25.35ZM7.85,38V32.41H21.14m5.7,0h3.32m1.5,11.09H7.85V38H20"/><path class="cls-1" d="M37.24,28.6a8.46,8.46,0,1,0,8.46,8.46h0a8.45,8.45,0,0,0-8.44-8.46Zm3.43,11.76-6.23.09a3.06,3.06,0,0,1-.12-6.12h.22L33.24,33,42,41.65Zm-6.08-6a3.25,3.25,0,0,1,5.69.09,4.64,4.64,0,0,1,.43,1,2.94,2.94,0,0,1,2.53,2.8,1.89,1.89,0,0,1-1.66,2.1H40.7"/></svg>
